places/16/mail-folder-inbox.svg

<?xml version="1.0" encoding="UTF-8"?>
<svg id="a" width="16" height="16" version="1.1" xmlns="http://www.w3.org/2000/svg" xmlns:cc="http://creativecommons.org/ns#" xmlns:dc="http://purl.org/dc/elements/1.1/" xmlns:rdf="http://www.w3.org/1999/02/22-rdf-syntax-ns#">
	<metadata id="d">
		<rdf:RDF>
			<cc:Work rdf:about="">
				<dc:format>image/svg+xml</dc:format>
				<dc:type rdf:resource="http://purl.org/dc/dcmitype/StillImage"/>
				<dc:title/>
			</cc:Work>
		</rdf:RDF>
	</metadata>
	<defs>
		<style id="current-color-scheme" type="text/css">.ColorScheme-Text {color:#090d11;}.ColorScheme-Background{color:#ffffff;}</style>
	</defs>
	<path id="e" d="m2 2v4h2v5h8.0312l-0.03125-5h2v-4z" style="fill-opacity:.75;fill:currentColor;opacity:.35;" class="ColorScheme-Text"/>
	<path id="b" d="m1 7v7h1 12 1v-7h-2v5h-10v-5z" style="fill-opacity:.75;fill:currentColor;" class="ColorScheme-Text"/>
	<path id="c" d="m1 1v4h1v-3h12v3h1v-3-1h-13-1zm-1 5v1 7 1h1 1 12 1 1v-1-7-1h-1-2-1v1 4h-8v-4-1h-1-2-1zm1 1h2v5h10v-5h2v7h-1-12-1v-7z" style="fill-opacity:.5;fill:currentColor" class="ColorScheme-Background"/>
</svg>

<?xml version="1.0" encoding="UTF-8" standalone="no"?>
<!-- Created with Inkscape (http://www.inkscape.org/) -->

<svg
   xmlns:dc="http://purl.org/dc/elements/1.1/"
   xmlns:cc="http://creativecommons.org/ns#"
   xmlns:rdf="http://www.w3.org/1999/02/22-rdf-syntax-ns#"
   xmlns:svg="http://www.w3.org/2000/svg"
   xmlns="http://www.w3.org/2000/svg"
   xmlns:sodipodi="http://sodipodi.sourceforge.net/DTD/sodipodi-0.dtd"
   xmlns:inkscape="http://www.inkscape.org/namespaces/inkscape"
   id="svg13094"
   height="16"
   width="16"
   version="1.1"
   inkscape:version="0.48.4 r9939"
   sodipodi:docname="mail-folder-inbox.svg">
  <defs
     id="defs3009" />
  <sodipodi:namedview
     pagecolor="#ffffff"
     bordercolor="#666666"
     borderopacity="1"
     objecttolerance="10"
     gridtolerance="10"
     guidetolerance="10"
     inkscape:pageopacity="0"
     inkscape:pageshadow="2"
     inkscape:window-width="1920"
     inkscape:window-height="1025"
     id="namedview3007"
     showgrid="true"
     inkscape:zoom="41.7193"
     inkscape:cx="11.261536"
     inkscape:cy="7.7178983"
     inkscape:window-x="-2"
     inkscape:window-y="32"
     inkscape:window-maximized="1"
     inkscape:current-layer="svg13094"
     inkscape:snap-bbox="true"
     inkscape:bbox-paths="true"
     inkscape:bbox-nodes="true"
     inkscape:snap-bbox-edge-midpoints="true"
     inkscape:snap-bbox-midpoints="true"
     inkscape:object-paths="true"
     inkscape:snap-intersection-paths="true"
     inkscape:object-nodes="true"
     inkscape:snap-smooth-nodes="true"
     inkscape:snap-midpoints="true"
     inkscape:snap-object-midpoints="true"
     inkscape:snap-center="true">
    <inkscape:grid
       type="xygrid"
       id="grid2982" />
  </sodipodi:namedview>
  <metadata
     id="metadata13099">
    <rdf:RDF>
      <cc:Work
         rdf:about="">
        <dc:format>image/svg+xml</dc:format>
        <dc:type
           rdf:resource="http://purl.org/dc/dcmitype/StillImage" />
        <dc:title />
      </cc:Work>
    </rdf:RDF>
  </metadata>
  <path
     style="color:#000000;fill:#27303a;fill-opacity:0.753280819999999968;fill-rule:nonzero;stroke:none;stroke-width:4;marker:none;visibility:visible;display:inline;overflow:visible;enable-background:accumulate"
     d="M 2 2 L 2 2.5 L 8 5 L 14 2.5 L 14.03125 2 L 2 2 z M 2 3 L 2 6 L 4 6 L 4 11 L 12.03125 11 L 12 6 L 14 6 L 14 3 L 8 7 L 2 3 z M 1 7 L 1 14 L 2 14 L 14 14 L 15 14 L 15 7 L 13 7 L 13 12 L 3 12 L 3 7 L 1 7 z "
     id="path2993" />
  <path
     style="font-size:medium;font-style:normal;font-variant:normal;font-weight:normal;font-stretch:normal;text-indent:0;text-align:start;text-decoration:none;line-height:normal;letter-spacing:normal;word-spacing:normal;text-transform:none;direction:ltr;block-progression:tb;writing-mode:lr-tb;text-anchor:start;baseline-shift:baseline;color:#000000;fill:#f1f3f5;fill-opacity:0.90288714000000003;fill-rule:nonzero;stroke:none;stroke-width:2;marker:none;visibility:visible;display:inline;overflow:visible;enable-background:accumulate;font-family:Sans;-inkscape-font-specification:Sans"
     d="M 0 6 L 0 7 L 0 14 L 0 15 L 1 15 L 2 15 L 14 15 L 15 15 L 16 15 L 16 14 L 16 7 L 16 6 L 15 6 L 13 6 L 12 6 L 12 7 L 12 11 L 4 11 L 4 7 L 4 6 L 3 6 L 1 6 L 0 6 z M 1 7 L 3 7 L 3 12 L 13 12 L 13 7 L 15 7 L 15 14 L 14 14 L 2 14 L 1 14 L 1 7 z "
     id="path3028" />
  <path
     style="color:#000000;fill:#f1f3f5;fill-opacity:0.90288714000000003;fill-rule:nonzero;stroke:none;stroke-width:2;marker:none;visibility:visible;display:inline;overflow:visible;enable-background:accumulate"
     d="M 1 1 L 1 5 L 2 5 L 2 3 L 8 7 L 14 3 L 14 5 L 15 5 L 15 2 L 15 1 L 2 1 L 1 1 z M 2 2 L 14 2 L 14 2.5 L 8 5 L 2 2.5 L 2 2 z "
     id="rect3776" />
  <path
     style="color:#000000;fill:#27303a;fill-opacity:0.75328081999999996;fill-rule:nonzero;stroke:none;stroke-width:4;marker:none;visibility:visible;display:inline;overflow:visible;enable-background:accumulate"
     d="M 2,3 8,7 14,3 8,8 z"
     id="path2997"
     inkscape:connector-curvature="0" />
</svg>
